icons/desktop/16/svg/competitiveness-16.svg

<svg width="16" height="16" viewBox="0 0 16 16" fill="none" xmlns="http://www.w3.org/2000/svg">
<path fill-rule="evenodd" clip-rule="evenodd" d="M8.00098 1.00098C8.74087 1.00098 9.61964 1.04334 10.6006 1.17871L10.5996 1.17969C11.6733 1.32708 12.5467 2.07735 12.8672 3.07227C13.1007 3.03308 13.3587 3.00568 13.6377 3H13.6738C15.0013 2.98469 16 4.11092 16 5.36328V6.25C15.9999 8.31231 14.3354 9.98486 12.2764 9.99902C12.0885 10.3248 11.8552 10.6636 11.5625 10.9961C10.6452 12.0374 9.57805 12.5454 8.84766 12.793L8.84668 12.7939C8.81489 12.8047 8.78207 12.8118 8.75 12.8213V14.5H11.25C11.6642 14.5 12 14.8358 12 15.25C12 15.6642 11.6642 16 11.25 16H4.75C4.33579 16 4 15.6642 4 15.25C4 14.8358 4.33579 14.5 4.75 14.5H7.25V12.8213C7.21823 12.8119 7.18579 12.8046 7.1543 12.7939L7.15332 12.793C6.42319 12.5455 5.35416 12.0382 4.4375 10.9961C4.14508 10.6637 3.91144 10.3246 3.72363 9.99902C1.66464 9.98485 0.000131356 8.3123 0 6.25V5.3623C0 4.11039 0.997979 2.98647 2.32422 3.00098L2.36035 3C2.63975 3.00566 2.89801 3.03306 3.13184 3.07227C3.44105 2.09699 4.27616 1.33712 5.34668 1.18652C6.1408 1.07516 7.03087 1.00098 8.00098 1.00098ZM8.00098 2.50098C7.10709 2.50098 6.28657 2.56826 5.55469 2.6709C4.95523 2.75556 4.50098 3.28102 4.50098 3.90918V7.45508C4.50099 7.82001 4.55184 8.16254 4.66309 8.47266C4.82361 8.92039 5.09614 9.47384 5.56445 10.0059C6.25495 10.7907 7.06511 11.1794 7.63281 11.3721C7.84156 11.4425 8.06515 11.4514 8.27734 11.3984L8.36719 11.3721C8.89908 11.1916 9.64433 10.8391 10.3057 10.1484L10.4375 10.0049C10.9052 9.47335 11.1772 8.91986 11.3379 8.47266L11.4102 8.23438C11.4714 7.99003 11.5 7.72885 11.5 7.45508L11.501 3.90918C11.501 3.32643 11.09 2.81972 10.5137 2.68652L10.3955 2.66504C9.49245 2.54041 8.68309 2.50098 8.00098 2.50098ZM13.4863 4.50781C13.3101 4.51982 13.1476 4.54474 13 4.57422V7.45508L12.9863 7.83398C12.9725 8.02243 12.9462 8.21193 12.9082 8.40137C13.8297 8.11993 14.4999 7.26363 14.5 6.25V5.36328C14.5 4.86574 14.1046 4.49285 13.6865 4.5H13.668L13.4863 4.50781ZM2.31152 4.5C1.8938 4.49361 1.5 4.86611 1.5 5.3623V6.25C1.50011 7.26318 2.17 8.11857 3.09082 8.40039C3.02749 8.08361 3.00098 7.76575 3.00098 7.45508V4.57422C2.85258 4.54459 2.689 4.51985 2.51172 4.50781L2.33008 4.5H2.31152Z" fill="black"/>
</svg>

<!-- This Source Code Form is subject to the terms of the Mozilla Public
   - License, v. 2.0. If a copy of the MPL was not distributed with this
   - file, You can obtain one at http://mozilla.org/MPL/2.0/. -->
<svg xmlns="http://www.w3.org/2000/svg" width="16" height="16" fill="context-fill" fill-opacity="context-fill-opacity" viewBox="0 0 16 16">
    <path fill-rule="evenodd" d="M8.001 1.001c.74 0 1.619.042 2.6.178H10.6a2.78 2.78 0 0 1 2.267 1.893c.234-.039.492-.066.77-.072h.037C15 2.985 16 4.11 16 5.363v.887a3.75 3.75 0 0 1-3.724 3.749 6 6 0 0 1-.713.997 6.3 6.3 0 0 1-2.715 1.797h-.001q-.049.016-.097.028V14.5h2.5a.75.75 0 0 1 0 1.5h-6.5a.75.75 0 0 1 0-1.5h2.5v-1.679c-.032-.01-.064-.016-.096-.027v-.001a6.3 6.3 0 0 1-2.716-1.797A6 6 0 0 1 3.724 10 3.75 3.75 0 0 1 0 6.25v-.888C0 4.11.998 2.986 2.324 3.001L2.36 3c.28.006.538.033.772.072a2.73 2.73 0 0 1 2.215-1.885A19 19 0 0 1 8 1m0 1.5c-.894 0-1.714.067-2.446.17-.6.085-1.054.61-1.054 1.238v3.546c0 .365.05.708.162 1.018.16.447.433 1 .901 1.533.691.785 1.501 1.173 2.069 1.366.209.07.432.08.644.026l.09-.026a4.8 4.8 0 0 0 1.939-1.224l.132-.143c.467-.532.74-1.085.9-1.532l.072-.239q.09-.367.09-.779l.001-3.546c0-.583-.411-1.09-.987-1.222l-.118-.022A17.5 17.5 0 0 0 8 2.501m5.485 2.007a4 4 0 0 0-.486.066v2.881l-.014.379q-.021.283-.078.567A2.25 2.25 0 0 0 14.5 6.25v-.887c0-.497-.395-.87-.813-.863h-.019zM2.312 4.5c-.418-.006-.812.366-.812.862v.888A2.25 2.25 0 0 0 3.09 8.4a5 5 0 0 1-.089-.945v-2.88a4 4 0 0 0-.49-.067l-.18-.008z" clip-rule="evenodd" />
</svg>
